T: A Thousand Farewells
M: 6/8
L: 1/8
K: Dmaj
A |:dAF e^de | dBA A^GA | F^EF BAF | dAF EF/G/A |
dAF e2 e | dBA A2 A | F^EF BAF |[1 EFE DF/G/A :|[2 E^DE =D2 ||
|: A |dcd f^ef | afd edB | A^GA DFA | BAF EF/G/A |
[1 dcd f2 f | afd edB | A2 A DF/G/A | B/c/dc d2 :|
[2 dAF e2 e | dBA A2 D | F^EF BAF | E^DE =D2 |]
